public/library/aptos-icon-light.svg

<svg width="600" height="600" viewBox="0 0 600 600" fill="none" xmlns="http://www.w3.org/2000/svg">
<path d="M30.6608 171.033C18.0837 197.498 9.30164 226.119 5 256.181H255.339L309.999 171.033H30.6608Z" fill="#0F0E0B"/>
<path d="M594.999 256.182C590.687 226.111 581.915 197.499 569.338 171.034H419.288L364.648 85.8753H508.549C454.803 33.2026 381.199 0.716797 299.994 0.716797C218.79 0.716797 145.195 33.2026 91.4395 85.8653H364.648L309.988 171.024L364.648 256.172H594.989L594.999 256.182Z" fill="#0F0E0B"/>
<path d="M146.04 426.5L91.3809 511.648C145.136 564.311 218.601 597.284 299.805 597.284C381.01 597.284 455.718 565.99 509.672 511.648H200.7L146.04 426.5Z" fill="#0F0E0B"/>
<path d="M200.68 341.331H5C9.31157 371.412 18.0837 400.024 30.6608 426.489H146.04L200.68 341.331Z" fill="#0F0E0B"/>
<path d="M255.339 426.499H569.339C581.916 400.034 590.698 371.413 595 341.351H309.999L255.339 256.192L200.68 341.341" fill="#0F0E0B"/>
</svg>

<svg xmlns="http://www.w3.org/2000/svg" width="600" height="600" fill="none" viewBox="0 0 600 600"><path fill="#0f0e0b" d="M30.66 171.033A295.8 295.8 0 0 0 5 256.181h250.339l54.66-85.148z"/><path fill="#0f0e0b" d="M594.999 256.182c-4.312-30.071-13.084-58.683-25.661-85.148h-150.05l-54.64-85.159h143.901C454.803 33.203 381.199.717 299.994.717c-81.204 0-154.799 32.486-208.555 85.148h273.209l-54.66 85.159 54.66 85.148h230.341zM146.04 426.5l-54.66 85.148c53.756 52.663 127.221 85.636 208.425 85.636s155.913-31.294 209.867-85.636H200.7zM200.68 341.331H5c4.312 30.081 13.084 58.693 25.66 85.158h115.38zM255.339 426.499h314A295.9 295.9 0 0 0 595 341.351H309.999l-54.66-85.159-54.659 85.149"/></svg>
